X:224
T: Schfer und Edelmann (7d), S. 47
N: T0112
O: Luxemburg
S: Singendes Volk, Esch-Alzette 1937 posth.]
N: STRASSEN; BONNEWEG; gesungen von Kindern beim Spiele
R: "erzhlende Lieder"]
M: 2/4
L: 1/8
K: C
G2 | c2c2 | B2AA | A2GG | G2
AA | G2EE | E2AA | G2EE | E2
G2 | c2cc | d2d2 | e2ee | c2
cc | d2dd | B2BB | c2

@@@ Tune index: 8278
